www/assets/icons/mode_fan_off.svg

<svg width="24" height="24" viewBox="0 0 24 24" xmlns="http://www.w3.org/2000/svg" fill='currentColor'><path d="M16.6449 8.05482L14.3549 8.87482C14.1749 8.74482 13.9749 8.62482 13.7749 8.53482C13.9449 7.70482 14.4049 6.95482 15.1349 6.47482C17.1549 5.13482 16.4849 1.69482 13.6949 1.69482C10.6149 1.69482 8.79495 3.16482 8.39495 4.95482L19.0349 15.5948C20.5349 15.9848 22.3049 15.0848 22.3049 13.0848C22.3049 8.69482 19.2949 6.85482 16.6449 8.05482Z"/><path d="M3.11495 2.50482L1.69495 3.91482L5.57495 7.79482C4.07495 7.39482 2.30495 8.30482 2.30495 10.3048C2.30495 14.7048 5.31495 16.5448 7.96495 15.3348L10.2549 14.5148C10.4349 14.6448 10.6349 14.7648 10.8349 14.8548C10.6649 15.6848 10.2049 16.4348 9.47495 16.9148C7.45495 18.2548 8.12495 21.6948 10.9149 21.6948C13.9949 21.6948 15.8149 20.2248 16.2149 18.4348L20.0849 22.3048L21.4949 20.8948L3.11495 2.50482Z"/></svg>

<svg xmlns="http://www.w3.org/2000/svg" width="24" height="24" viewBox="0 0 24 24" fill='currentColor'><path d="m16.645 8.055-2.29.82c-.18-.13-.38-.25-.58-.34.17-.83.63-1.58 1.36-2.06 2.02-1.34 1.35-4.78-1.44-4.78-3.08 0-4.9 1.47-5.3 3.26l10.64 10.64c1.5.39 3.27-.51 3.27-2.51 0-4.39-3.01-6.23-5.66-5.03m-13.53-5.55-1.42 1.41 3.88 3.88c-1.5-.4-3.27.51-3.27 2.51 0 4.4 3.01 6.24 5.66 5.03l2.29-.82c.18.13.38.25.58.34-.17.83-.63 1.58-1.36 2.06-2.02 1.34-1.35 4.78 1.44 4.78 3.08 0 4.9-1.47 5.3-3.26l3.87 3.87 1.41-1.41z"/></svg>
